T:Five Hundred Miles
C:zhiming@vmiis.com
%%composerfont 10
K:C
L:1/4
Q: 1/4=120
Gc|e3/2e/2dc|e3/2e/2dc|d3/2e/2dc|
A2Ac|d3/2e/2dc|AGGG|Acd2-|
-d2cc|e3/2e/2dc|e3/2e/2dc|d3/2e/2dc|
A2Ac|d3/2e/2dc|AGGG|Acc-|
c4

-----------------------------------------------------
Try edit the above code yourself and have a fun